contributed-vectors/learnneo_alt.svg

<svg xmlns="http://www.w3.org/2000/svg" width="192" height="192" fill="none"><g clip-path="url(#a)"><g clip-path="url(#b)"><path fill="#fff" d="M172 29.6v133.9c0 5.3-4.3 9.6-9.6 9.6H28.6c-5.3 0-9.6-4.3-9.6-9.6V29.6c0-5.3 4.3-9.6 9.6-9.6h133.9c5.2 0 9.5 4.3 9.5 9.6Z"/><path fill="#F8C18C" d="M132 96.5v28.7c0 4.3-3.5 7.8-7.8 7.8-3.9 0-7.1-2.9-7.7-6.6-.1-.4-.1-.8-.1-1.2V96.5c0-11.5-9.3-20.9-20.9-20.9-7.9 0-14.7 4.3-18.2 10.7V64.9c5.4-3.1 11.6-4.9 18.2-4.9 20.2 0 36.5 16.3 36.5 36.5Z"/><path fill="#F8C18C" d="M87.4 88.8v15.4c0 2.1 2.2 3.4 4 2.4l14.1-7.7c1.9-1 1.9-3.8 0-4.8l-14.1-7.7c-1.7-1-4 .3-4 2.4Z"/><path fill="#9ABEFF" d="M103.3 125.2c0 4.3-3.5 7.8-7.8 7.8C75.3 133 59 116.7 59 96.5V67.8c0-4.3 3.5-7.8 7.8-7.8 3.9 0 7.1 2.9 7.7 6.6.1.4.1.8.1 1.2v28.7c0 11.5 9.3 20.9 20.9 20.9 4.3 0 7.8 3.5 7.8 7.8Z"/><path fill="#CCCCCB" d="M103.3 125.2c0-4.3-3.5-7.8-7.8-7.8 11.5 0 20.9-9.3 20.9-20.9v28.7c0 .4 0 .8.1 1.2-5.9 4.2-13.2 6.6-21 6.6 4.3 0 7.8-3.5 7.8-7.8Z"/></g></g><defs><clipPath id="a"><path fill="#fff" d="M0 0h192v192H0z"/></clipPath><clipPath id="b"><path fill="#fff" d="M19 20h153v153H19z"/></clipPath></defs></svg>

<svg width="192" height="192" viewBox="0 0 192 192" fill="none" xmlns="http://www.w3.org/2000/svg">
<g clip-path="url(#clip0)">
<g clip-path="url(#clip1)">
<path d="M172 29.6V163.5C172 168.8 167.7 173.1 162.4 173.1H28.6C23.3 173.1 19 168.8 19 163.5V29.6C19 24.3 23.3 20 28.6 20H162.5C167.7 20 172 24.3 172 29.6Z" fill="white"/>
<path d="M132 96.5V125.2C132 129.5 128.5 133 124.2 133C120.3 133 117.1 130.1 116.5 126.4C116.4 126 116.4 125.6 116.4 125.2V96.5C116.4 85 107.1 75.6 95.5 75.6C87.6 75.6 80.8 79.9 77.3 86.3V64.9C82.7 61.8 88.9 60 95.5 60C115.7 60 132 76.3 132 96.5Z" fill="#F8C18C"/>
<path d="M87.4 88.8V104.2C87.4 106.3 89.6 107.6 91.4 106.6L105.5 98.9C107.4 97.9 107.4 95.1 105.5 94.1L91.4 86.4C89.7 85.4 87.4 86.7 87.4 88.8Z" fill="#F8C18C"/>
<path d="M103.3 125.2C103.3 129.5 99.8 133 95.5 133C75.3 133 59 116.7 59 96.5V67.8C59 63.5 62.5 60 66.8 60C70.7 60 73.9 62.9 74.5 66.6C74.6 67 74.6 67.4 74.6 67.8V96.5C74.6 108 83.9 117.4 95.5 117.4C99.8 117.4 103.3 120.9 103.3 125.2Z" fill="#9ABEFF"/>
<path d="M103.3 125.2C103.3 120.9 99.8 117.4 95.5 117.4C107 117.4 116.4 108.1 116.4 96.5V125.2C116.4 125.6 116.4 126 116.5 126.4C110.6 130.6 103.3 133 95.5 133C99.8 133 103.3 129.5 103.3 125.2Z" fill="#CCCCCB"/>
</g>
</g>
<defs>
<clipPath id="clip0">
<rect width="192" height="192" fill="white"/>
</clipPath>
<clipPath id="clip1">
<rect width="153" height="153" fill="white" transform="translate(19 20)"/>
</clipPath>
</defs>
</svg>
